X:1
T:Sechs Lieder von Novalis
T:Frühlingslied
T:2. Frühlingslied
T:Louise Reichardt
T:Novalis (Georg Friedrich Freiherr von Hardenberg)
T:Sechs Lieder von Novalis, Op.4
T:                        5. Wie ich so stand und bey mir sann Ein mächt'ger Trieb in mir begann, Ein freundlich Mädchen kam gegangen Und nahm mir jeden Sinn gefangen. Ich wusste nicht wie mir geschah Und wie das wurde was ich sah.
T:                          4. So dacht' ich ist ein Geist erwacht Der alles so lebendig macht Und der mit tausend schönen Waaren und blüthen sich will offenbaren? Ich wusste nicht wie mir geschah Und wie das wurde was ich sah.
T:                           3. Es quoll und trieb nun überall Mit Leben, Farben, Duft und Schall; Sie schienen gern sich zu vereinen, Das alles möchte lieblich scheinen Ich wusste nicht wie mir geschah Und wie das wurde was ich sah.
T:OpenScore (CC0) 
T:OpenScore (CC0) 
C:Louise Reichardt
Z:Novalis (Georg Friedrich Freiherr von Hardenberg)
Z:OpenScore (CC0)
%%score ( 1 2 ) { 3 | 4 }
L:1/8
Q:1/4=90
M:6/8
K:F
V:1 treble nm="Voice"
V:2 treble 
V:3 treble nm="Piano"
V:4 bass 
V:1
"^Lieblich" F A B |: c2 F B2 d | c2 c f e d | c2 d G2 c | A2 z A A A | d2 d e2 e | f e d (c>d) c | %7
w: 1. Es färb- te|sich die Wie- se|grün, * und um die|Heck- en sah ichs|blühn, Tag- täg- lich|sah ich neu- e|Kräu- ter mild war * die|
w: 2.         * *|dunk- ler ward der|Wald, auch bun- * ter|Sän- ger Auf- ent-|halt, Es drang mir|bald auf al- len|We- gen ihr Klang * im|
 (c>f) (e/d/) c2 c | d c z c c c | _e3 e d A | B2 z G d c | c2 F A2 G | F2 z | %13
w: Luft * der * Him- mel|hei- ter. Ich wus- ste|nicht wie mir ge-|schah und wie das|wur- de was ich|sah.|
w: süs- * sen * Duft ent-|ge- gen. Ich wus- ste|nicht wie mir ge-|schah und wie das|wur- de was ich|sah.|
"^[ 1.2.3.4. times only ]" F A B :|"^Zur letzten Strophe" F A B | c2 F B2 d | c2 z f e d | %17
w: 2. Und im- mer|[6.] Uns  barg  der|Wald vor Son- nen-|schein das ist der|
w: 3. Es quoll und||||
 c2 d !turn!G2{d} c | A2 z A A A | d2 d e2 e | f e d (c>d) c | (c>f) (e/d/) c2 c | d c z c A F | %23
w: Früh- ling! fiel mir|ein Und kurz ich|sah dass jetzt auf|Er- den die Men- * schen|soll- * ten * Göt- ter|wer- den. Nun wusst' ich|
w: ||||||
 _e3 e d ^c | d2 z d e f | =c2 F A2 G | F2 z |] %27
w: wohl wie mir ge-|schah und wie das|wur- de was ich|sah.|
w: ||||
V:2
 x3 |: x6 | x2 z fe x | x6 | x6 | x6 | x6 | x6 | x6 | x6 | x6 | x6 | x3 | x3 :| x3 | x6 | x6 | x6 | %18
 x6 | x6 | x6 | x6 | x6 | x6 | x6 | x6 | x3 |] %27
V:3
 z2 z |: A,/C/F/C/A,/C/ B,/D/F/D/B,/D/ | A,/C/F/C/A,/C/ A,/C/F/C/A,/C/ | %3
 A,/C/F/C/A,/C/ B,/C/E/C/B,/C/ | A,/C/F/C/A,/C/ A,/^C/G/C/A,/C/ | A,/D/F/D/A,/D/ A,/^C/G/C/A,/C/ | %6
 A,/D/F/D/A,/D/ =C/G/B/G/C/G/ | C/F/A/F/C/F/ C/E/G/E/C/E/ | C/F/A/F/C/F/ C/_E/A/E/C/E/ | %9
 C/_E/A/E/C/E/ C/D/A/D/C/D/ | B,/D/G/D/B,/D/ B,/C/G/C/B,/C/ | A,/C/F/C/A,/C/ B,/C/E/C/B,/C/ | %12
 A,/C/F/C/A,/C/ | A,/C/F/C/A,/C/ :| z2 z | A,/C/F/C/A,/C/ B,/D/F/D/B,/D/ | %16
 A,/C/F/C/A,/C/ A,/C/F/C/A,/C/ | A,/C/F/C/A,/C/ B,/C/E/C/B,/C/ | A,/C/F/C/A,/C/ A,/^C/G/C/A,/C/ | %19
 A,/D/F/D/A,/D/ A,/^C/G/C/A,/C/ | A,/D/F/D/A,/D/ =C/G/B/G/C/G/ | C/F/A/F/C/F/ C/E/G/E/C/E/ | %22
 C/F/A/F/C/F/ C/F/A/F/C/F/ | _E/F/c/F/E/F/ E/F/c/F/E/F/ | D/F/B/F/D/F/ D/F/B/F/D/F/ | %25
 C/F/A/F/C/F/ B,/E/G/E/B,/E/ | [A,CF]2 z |] %27
V:4
 z2 z |: F,2 z F,2 z | F,2 z F,2 z | F,2 z C,2 z | F,2 z E,2 z | D,2 z A,,2 z | D,2 z (E,3 | %7
 F,2) z (B,3 | A,2) z (G,3 | ^F,3) (F,3 | G,2) z (=E,3 | F,2) z C,2 z | F,,2 z | %13
"^[ 1.2.3.4. times only ]" F,2 z :| z2 z | F,2 z F,2 z | F,2 z F,2 z | F,2 z C,2 z | F,2 z E,2 z | %19
 D,2 z A,,2 z | D,2 z (E,3 | F,2) z (B,3 | A,2) z A,2 z | A,2 z A,2 z | B,2 z B,,2 z | %25
 C,2 z C,,2 z | F,,2 z |] %27

